X:1
T:Title
%%score { ( 1 4 ) | ( 2 3 ) }
L:1/8
M:4/4
K:A
V:1 treble nm="Grand Piano"
V:4 treble 
V:2 bass 
V:3 bass 
V:1
 z4 z2[Q:1/4=100] [Ec][DB] | [CA]2 [CA][CA] [CA][Ec][DB][CA] | B2 B>B B2 GA | %3
 [GB]2 [GB][GB] [GB][Bd][Ac][GB] | c2 c>c c2 cd | e2 AB c2 Bc | [Fd]2 [Fd][Fd] [Ec]2 cc | %7
 B2 [Ac][A^d] [Ge]GBA |[M:7/8] G2 [^DG]>[DF] E3 |[M:1/4] EE |[M:4/4] [CA]2 [DG][CA] B2 EE | %11
 B2 AB c2 AB | c2 cc e2 cA | [^DAB]2 [DAB][DAc] .[EGB]2 [Ge][Gd] | c2 cc e2 cA | %15
[M:9/8] [FB]2 [FB] [Fc] [Fd]2- [Fd]GG | .A3 z3 z3 |[M:7/8] c2 z z z z2 |] %18
V:2
 z4 z2 [A,,A,][A,,A,] | [A,,A,]2 [A,,A,][A,,A,] [A,,A,]2 [A,,A,][A,,A,] | %2
 [E,G,E]2 [E,G,E]>[E,G,E] [E,G,E]2 [E,B,E][E,B,E] | [E,E]2 [E,E][E,E] [E,E]2 [E,E][E,E] | %4
 [A,EA]2 [A,EA]>[A,EA] [A,EA]2 [A,EA][A,B,A] | [A,CA]2 [A,C][A,DA] [A,EA]2 [A,G][A,=G] | %6
 [D,A,]2 [D,A,][D,A,] [A,,A,]2 [A,E][A,E] | [G,B,E]2 [F,B,][F,B,] z[K:treble] E[A,CG][A,CF] | %8
[M:7/8][K:bass] [B,E]2 [B,,B,]>[B,,A,] [E,G,]3 |[M:1/4] [E,G,D][E,G,D] | %10
[M:4/4] [A,,E,]2 [B,,E,][A,,E,] [E,G,E]2 [E,G,][E,G,] | %11
 [E,G,E]2 [E,F,E][E,G,E][K:treble] [A,E]2 [A,CE][A,DE] | %12
 [A,EA]2 [A,EA][A,EA] [A,CA]2 [A,EA][K:bass][A,C] | F,2 B,,B,, z D[E,B,][E,E] | %14
 [A,EA]2 [A,EA][A,EA] [A,CA]2 [A,EA][A,C=G] | %15
[M:9/8][K:bass] [D,D]2 [D,B,] [C,^A,] [B,,B,]2- [B,,B,][E,B,D][E,B,D] | .A,3 z3 z3 | %17
[M:7/8] A, z z z z z2 |] %18
V:3
 x8 | x8 | x8 | x8 | x8 | x8 | x8 | z4 [E,B,]2[K:treble] z2 |[M:7/8][K:bass] x7 |[M:1/4] x2 | %10
[M:4/4] x8 | x4[K:treble] x4 | x7[K:bass] x | z4 E,2 z2 | x8 |[M:9/8][K:bass] x9 | %16
 [F,C]C,D, D,A,,[C,A,]- [C,A,]2 [D,A,] |[M:7/8] [E,E]2 [E,G,D]>[A,,A,] [A,,E,A,]3 |] %18
V:4
 x8 | x8 | x8 | x8 | x8 | x8 | x8 | x8 |[M:7/8] x7 |[M:1/4] x2 |[M:4/4] x8 | x8 | x8 | x8 | x8 | %15
[M:9/8] x9 | z E[A,EG] [A,DF][A,CE][Ee]- [Ee]2 [Fd] |[M:7/8] z F,B>[CA] [CA]3 |] %18

